icons/folder-luau.svg

<svg width="32" height="32" viewBox="0 0 32 32" fill="none" xmlns="http://www.w3.org/2000/svg">
<path d="M13.844 7.536L12.556 6.464C12.1967 6.1644 11.7438 6.00021 11.276 6H4C3.46957 6 2.96086 6.21071 2.58579 6.58579C2.21071 6.96086 2 7.46957 2 8V24C2 24.5304 2.21071 25.0391 2.58579 25.4142C2.96086 25.7893 3.46957 26 4 26H28C28.5304 26 29.0391 25.7893 29.4142 25.4142C29.7893 25.0391 30 24.5304 30 24V10C30 9.46957 29.7893 8.96086 29.4142 8.58579C29.0391 8.21071 28.5304 8 28 8H15.124C14.6562 7.99979 14.2033 7.8356 13.844 7.536Z" fill="#42A5F5"/>
<path fill-rule="evenodd" clip-rule="evenodd" d="M18.3812 12L31 15.3812L27.6188 28L15 24.6188L18.3812 12ZM26.4762 15.8596L29 16.5359L28.3237 19.0596L25.8 18.3834L26.4762 15.8596Z" fill="#B3E5FC"/>
</svg>

<svg xmlns="http://www.w3.org/2000/svg" fill="none" viewBox="0 0 32 32"><path fill="#42A5F5" d="m13.844 7.536-1.288-1.072A2 2 0 0 0 11.276 6H4a2 2 0 0 0-2 2v16a2 2 0 0 0 2 2h24a2 2 0 0 0 2-2V10a2 2 0 0 0-2-2H15.124a2 2 0 0 1-1.28-.464"/><path fill="#B3E5FC" fill-rule="evenodd" d="M18.381 12 31 15.381 27.619 28 15 24.619zm8.095 3.86 2.524.676-.676 2.524-2.524-.677z" clip-rule="evenodd"/></svg>
